X:1
T:Title
%%score ( 1 2 ) ( 3 4 )
L:1/8
Q:1/4=110
M:4/4
K:Eb
V:1 treble nm="Grand Piano, Soprano"
V:2 treble 
V:3 bass nm="Grand Piano, Bass"
V:4 bass 
V:1
 z4 z2 [EG]>[B,F] | [B,E]3 [B,F] [EG]>[GB] [Ac]>[GB] | [GB]4 [EG]2 [EG]>[DF] | E3 E [DF]2 [FA]2 | %4
w: 1.~Shall~ I~|tell~ you~ why~ I~ ceased~ from~|fol ly?~ Why~ I~|turned~ a way~ from~|
 [EG]6 [EG]>[B,F] | [B,E]3 [B,F] [EG]>[GB] [Ac]>[GB] | [GB]4 [EG]2 E>[EG] | %7
w: sin?~ 'Twas~ be|cause~ the~ love~ of~ my~ Re|deem er~ Ful ly~|
 [DF]3 [EG] [FA]2 [DB]2 | E6 (3[DB][Ec][Fd] | [Ge]4- [Ge]>[GB] [EG]>E | [EB]4 [EG]2 [Ge]>[Ge] | %11
w: won~ my~ heart~ to~|Him.~ * * *|||
 [Ad]4- [Ad]>[Ac] [GB]>[FA] | [EG]6 [EG]>[FA] | [GB]4- [GB]>[Ge] [Af]>[Be] | %14
w: |||
 [Ac]4 [Ae]2 [EA]>[Ac] | [GB]3 [FA] [DF]2 [EB]2 | z z/ E/- E4 z2 |] %17
w: |||
V:2
 x8 | x8 | x8 | x8 | x8 | x8 | x8 | x8 | x8 | x8 | x8 | x8 | x8 | x8 | x8 | x8 | E2 C>C B,2 z2 |] %17
V:3
 z4 z2 [E,B,]>[E,A,] | [E,G,]3 [E,A,] [E,B,]>[E,E] [E,E]>[E,E] | [E,E]4 [E,B,]2 [E,B,]>[B,,B,] | %3
 [C,=A,]3 [C,A,] [B,,B,]2 [B,,B,]2 | [E,B,]6 [E,B,]>[E,A,] | %5
 [E,G,]3 [E,A,] [E,B,]>[E,E] [E,E]>[E,E] | [E,E]4 [E,B,]2 [E,G,]>[E,B,] | %7
 [B,,B,]3 [B,,B,] [B,,B,]2 [B,,A,]2 | [E,G,]6 (3:2:2B,2 B, | %9
 [E,B,]>[E,B,] [E,B,]>[E,B,] [E,B,]>[E,B,] [E,B,]>[E,G,] | %10
 [E,G,]>[E,G,] [E,G,]>[E,G,] [E,B,]2 [E,B,]>[E,B,] | %11
 [B,,B,]>[B,,B,] [B,,B,]>[B,,B,] [B,,B,]>[B,,B,] [C,B,]>[D,B,] | %12
 [E,B,]>[E,B,] [E,B,]>[E,B,] [E,B,]2 [E,B,]>[E,B,] | %13
 [E,E]>[E,E] [E,E]>[E,E] [E,E]>[E,E] [E,E]>[G,E] | %14
 [A,E]>[A,E] [A,E]>[A,E] [A,C]>[A,C] [A,C]>[A,E] | [B,E]3 B, [B,,B,]2 [B,,A,]2 | %16
 E,->[E,-G,] [E,-A,]>[E,-A,] [E,G,]2 z2 |] %17
V:4
 x8 | x8 | x8 | x8 | x8 | x8 | x8 | x8 | x8 | x8 | x8 | x8 | x8 | x8 | x8 | x8 | G,2 z2 z4 |] %17

